img/svg/logo.svg

<svg width="128" height="31" viewBox="0 0 128 31" fill="none" xmlns="http://www.w3.org/2000/svg">
<path fill-rule="evenodd" clip-rule="evenodd" d="M31.2538 4.15451C32.7682 4.15451 34.1385 4.53593 35.3649 5.29065C36.5913 6.05079 37.5618 7.12471 38.2763 8.52055C38.9908 9.91639 39.3481 11.534 39.3481 13.3735C39.3481 15.213 38.9908 16.8415 38.2763 18.2589C37.5618 19.6764 36.5913 20.7747 35.3649 21.5538C34.1385 22.3328 32.7682 22.7224 31.2538 22.7224C29.9528 22.7224 28.8064 22.4519 27.8146 21.9108C26.8228 21.3698 26.0176 20.6881 25.3991 19.8658V31H20.92V4.44666H25.3991V7.04356C25.975 6.22391 26.7695 5.53411 27.7826 4.98227C28.7957 4.43043 29.9528 4.15451 31.2538 4.15451ZM49.074 4.15451C50.759 4.15451 52.268 4.5224 53.601 5.25819C54.9341 5.99398 55.9685 7.03815 56.7044 8.39071C57.4402 9.74326 57.8081 11.296 57.8081 13.0489C57.8081 13.6981 57.7655 14.2824 57.6802 14.8018H44.7229C44.8296 16.1003 45.2775 17.1174 46.0666 17.8532C46.8558 18.589 47.8263 18.9569 48.978 18.9569C50.6417 18.9569 51.8254 18.2319 52.5293 16.7819H57.3602C56.8483 18.5132 55.8672 19.9361 54.4169 21.0506C52.9665 22.1678 51.1855 22.7224 49.074 22.7224C47.3677 22.7224 45.8374 22.3382 44.483 21.57C43.1286 20.8017 42.0728 19.7143 41.3157 18.3076C40.5585 16.901 40.1799 15.2779 40.1799 13.4384C40.1799 11.58 40.5532 9.94614 41.2997 8.53678C42.0462 7.13012 43.0913 6.05079 44.435 5.29065C45.7787 4.53593 47.325 4.15451 49.074 4.15451ZM119.266 4.15451C120.951 4.15451 122.46 4.5224 123.793 5.25819C125.126 5.99398 126.16 7.03815 126.896 8.39071C127.632 9.74326 128 11.296 128 13.0489C128 13.6981 127.957 14.2824 127.872 14.8018H114.915C115.021 16.1003 115.469 17.1174 116.259 17.8532C117.048 18.589 118.018 18.9569 119.17 18.9569C120.834 18.9569 122.017 18.2319 122.721 16.7819H127.552C127.04 18.5132 126.059 19.9361 124.609 21.0506C123.158 22.1678 121.377 22.7224 119.266 22.7224C117.56 22.7224 116.029 22.3382 114.675 21.57C113.32 20.8017 112.265 19.7143 111.508 18.3076C110.75 16.901 110.372 15.2779 110.372 13.4384C110.372 11.58 110.745 9.94614 111.492 8.53678C112.238 7.13012 113.283 6.05079 114.627 5.29065C115.971 4.53593 117.517 4.15451 119.266 4.15451ZM4.42572 16.3326L12.6639 21.1748C12.344 21.4453 11.9708 21.6887 11.5709 21.9052C10.5577 22.4462 9.38465 22.7167 8.05161 22.7167C6.74522 22.7167 5.51882 22.4191 4.42572 21.797V16.3326ZM86.2484 4.44747V14.3482C86.2484 15.7765 86.6003 16.8747 87.3042 17.643C88.008 18.4112 88.9678 18.7954 90.1836 18.7954C91.4206 18.7954 92.3911 18.4112 93.095 17.643C93.7988 16.8747 94.1507 15.7765 94.1507 14.3482V4.44747H98.6618V22.431H94.1507V20.1587C93.5749 20.9378 92.823 21.5492 91.8952 21.9928C90.9674 22.4364 89.9596 22.6583 88.8719 22.6583C87.4855 22.6583 86.2591 22.3607 85.1926 21.7656C84.1262 21.1704 83.2891 20.294 82.6812 19.1362C82.0733 17.9784 81.7694 16.5988 81.7694 14.9974V4.44747H86.2484ZM69.0697 4.18805V8.95986H67.886C66.4783 8.95986 65.4172 9.29529 64.7027 9.96616C63.9881 10.637 63.6309 11.8056 63.6309 13.472V22.4313H59.1518V4.44774H63.6309V7.23941C64.2068 6.28721 64.9586 5.5406 65.8864 4.99958C66.8142 4.45856 67.8753 4.18805 69.0697 4.18805ZM110.436 4.18805V8.95986H109.252C107.844 8.95986 106.783 9.29529 106.069 9.96616C105.354 10.637 104.997 11.8056 104.997 13.472V22.4313H100.518V4.44774H104.997V7.23941C105.573 6.28721 106.325 5.5406 107.252 4.99958C108.18 4.45856 109.241 4.18805 110.436 4.18805ZM76.6524 0V4.4472H80.6195V8.18025H76.6524V16.8799C76.6524 17.4858 76.7963 17.924 77.0843 18.1946C77.3722 18.4651 77.8574 18.6003 78.5399 18.6003H80.6195V22.4308H77.8041C74.0289 22.4308 72.1413 20.5696 72.1413 16.8474V8.18025H70.0298V4.4472H72.1413V0H76.6524ZM18.4494 12.572V22.4186H13.9437V19.7946C13.7304 20.1192 13.4904 20.4168 13.1972 20.6873L8.87809 18.1716L18.4494 12.572ZM3.75919 11.5167V21.3904C2.63943 20.6329 1.73296 19.605 1.06644 18.2524C0.399914 16.9269 0.0533219 15.4121 0 13.7079L3.75919 11.5167ZM30.0701 8.14725C29.2596 8.14725 28.4971 8.35824 27.7826 8.78024C27.0681 9.20224 26.4922 9.81359 26.0549 10.6143C25.6177 11.415 25.3991 12.3564 25.3991 13.4384C25.3991 14.5205 25.6177 15.4646 26.0549 16.2626C26.4922 17.0633 27.0681 17.6746 27.7826 18.0966C28.4971 18.5186 29.2596 18.7296 30.0701 18.7296C30.9019 18.7296 31.6751 18.5132 32.3896 18.0804C33.1041 17.6476 33.68 17.0308 34.1172 16.2301C34.5545 15.4294 34.7731 14.4772 34.7731 13.3735C34.7731 12.2915 34.5545 11.3555 34.1172 10.5656C33.68 9.77572 33.1041 9.17519 32.3896 8.76401C31.6751 8.35283 30.9019 8.14725 30.0701 8.14725ZM18.4488 4.45667V11.7875L12.6634 15.1689V5.70102C13.17 6.07973 13.5965 6.51255 13.9431 6.99947V4.45667H18.4488ZM3.09267 5.9177L7.54505 8.5146L0.0266609 12.9239C0.0533219 11.2738 0.399914 9.81305 1.06644 8.54165C1.59966 7.48666 2.29284 6.62102 3.09267 5.9177ZM48.946 7.88755C47.8369 7.88755 46.9038 8.2284 46.1466 8.91009C45.3895 9.59177 44.9256 10.5386 44.7549 11.7505H53.1691C53.1478 10.5818 52.7319 9.64587 51.9214 8.94255C51.1109 8.23922 50.1191 7.88755 48.946 7.88755ZM119.138 7.88755C118.029 7.88755 117.096 8.2284 116.339 8.91009C115.581 9.59177 115.117 10.5386 114.947 11.7505H123.361C123.34 10.5818 122.924 9.64587 122.113 8.94255C121.303 8.23922 120.311 7.88755 119.138 7.88755ZM8.10439 4.15937C9.41078 4.15937 10.5572 4.42989 11.5703 4.97091C11.7036 5.05206 11.8636 5.13321 11.9969 5.24142V10.3541L3.70534 5.48488C3.78532 5.40372 3.89196 5.34962 3.97195 5.29552C5.19835 4.53809 6.58472 4.15937 8.10439 4.15937Z" fill="white"/>
</svg>

<svg width="128" height="31" fill="none" xmlns="http://www.w3.org/2000/svg"><path fill-rule="evenodd" clip-rule="evenodd" d="M31.254 4.155c1.514 0 2.884.38 4.11 1.136 1.227.76 2.198 1.834 2.912 3.23.715 1.395 1.072 3.013 1.072 4.852 0 1.84-.357 3.469-1.072 4.886-.714 1.417-1.685 2.516-2.911 3.295-1.227.779-2.597 1.168-4.111 1.168-1.301 0-2.448-.27-3.44-.811-.991-.541-1.796-1.223-2.415-2.045V31H20.92V4.447h4.48v2.597c.575-.82 1.37-1.51 2.383-2.062 1.013-.552 2.17-.827 3.47-.827zm17.82 0c1.685 0 3.194.367 4.527 1.103a7.712 7.712 0 013.103 3.133c.736 1.352 1.104 2.905 1.104 4.658a10.8 10.8 0 01-.128 1.753H44.723c.107 1.298.555 2.315 1.344 3.051.789.736 1.76 1.104 2.911 1.104 1.664 0 2.847-.725 3.551-2.175h4.831c-.512 1.731-1.493 3.154-2.943 4.269-1.45 1.117-3.232 1.671-5.343 1.671-1.706 0-3.237-.384-4.591-1.152-1.354-.768-2.41-1.856-3.167-3.262-.758-1.407-1.136-3.03-1.136-4.87 0-1.858.373-3.492 1.12-4.901.746-1.407 1.791-2.486 3.135-3.246 1.344-.755 2.89-1.136 4.639-1.136zm70.192 0c1.685 0 3.194.367 4.527 1.103a7.712 7.712 0 013.103 3.133c.736 1.352 1.104 2.905 1.104 4.658 0 .65-.043 1.233-.128 1.753h-12.957c.106 1.298.554 2.315 1.344 3.051.789.736 1.759 1.104 2.911 1.104 1.664 0 2.847-.725 3.551-2.175h4.831c-.512 1.731-1.493 3.154-2.943 4.269-1.451 1.117-3.232 1.671-5.343 1.671-1.706 0-3.237-.384-4.591-1.152-1.355-.768-2.41-1.856-3.167-3.262-.758-1.407-1.136-3.03-1.136-4.87 0-1.858.373-3.492 1.12-4.901.746-1.407 1.791-2.486 3.135-3.246 1.344-.755 2.89-1.136 4.639-1.136zM4.426 16.333l8.238 4.842a6.46 6.46 0 01-1.093.73c-1.013.541-2.186.812-3.52.812-1.306 0-2.532-.298-3.625-.92v-5.464zM86.248 4.447v9.901c0 1.428.352 2.527 1.056 3.295.704.768 1.664 1.152 2.88 1.152 1.237 0 2.207-.384 2.911-1.152.704-.768 1.056-1.867 1.056-3.295v-9.9h4.51V22.43h-4.51v-2.272c-.576.779-1.328 1.39-2.256 1.834a6.918 6.918 0 01-3.023.665c-1.386 0-2.613-.297-3.68-.892-1.066-.596-1.903-1.472-2.51-2.63-.609-1.158-.913-2.537-.913-4.139V4.447h4.48zM69.07 4.188V8.96h-1.184c-1.408 0-2.469.335-3.183 1.006-.715.671-1.072 1.84-1.072 3.506v8.96h-4.48V4.447h4.48v2.791A6.341 6.341 0 0165.886 5c.928-.54 1.99-.811 3.184-.811zm41.366 0V8.96h-1.184c-1.408 0-2.469.335-3.183 1.006-.715.671-1.072 1.84-1.072 3.506v8.96h-4.479V4.447h4.479v2.791A6.347 6.347 0 01107.252 5c.928-.54 1.989-.811 3.184-.811zM76.652 0v4.447h3.968V8.18h-3.968v8.7c0 .606.144 1.044.432 1.315.288.27.773.405 1.456.405h2.08v3.83h-2.816c-3.775 0-5.663-1.86-5.663-5.583V8.18H70.03V4.447h2.111V0h4.511zM18.45 12.572v9.847h-4.505v-2.624a4.72 4.72 0 01-.747.892l-4.319-2.515 9.571-5.6zM3.76 11.517v9.873c-1.12-.757-2.026-1.785-2.693-3.138C.4 16.927.053 15.412 0 13.708l3.76-2.191zm26.311-3.37c-.81 0-1.573.211-2.287.633-.715.422-1.29 1.034-1.728 1.834-.437.801-.656 1.742-.656 2.824 0 1.082.219 2.027.656 2.825.437.8 1.013 1.412 1.728 1.834a4.424 4.424 0 002.287.633c.832 0 1.605-.217 2.32-.65.714-.432 1.29-1.05 1.727-1.85.438-.8.656-1.753.656-2.857 0-1.082-.219-2.018-.656-2.807-.437-.79-1.013-1.39-1.727-1.802a4.572 4.572 0 00-2.32-.617zM18.45 4.457v7.33l-5.786 3.382V5.7c.507.379.934.812 1.28 1.298V4.457h4.506zM3.093 5.917l4.452 2.598-7.518 4.409c.026-1.65.373-3.11 1.04-4.382a8.675 8.675 0 012.026-2.624zm45.853 1.97c-1.11 0-2.042.341-2.8 1.023-.757.682-1.22 1.629-1.391 2.84h8.414c-.021-1.168-.437-2.104-1.248-2.807-.81-.704-1.802-1.055-2.975-1.055zm70.192 0c-1.109 0-2.042.341-2.799 1.023-.758.682-1.222 1.629-1.392 2.84h8.414c-.021-1.168-.437-2.104-1.248-2.807-.81-.704-1.802-1.055-2.975-1.055zM8.104 4.16c1.307 0 2.453.27 3.466.812.134.081.294.162.427.27v5.113l-8.292-4.87c.08-.08.187-.134.267-.188C5.198 4.539 6.585 4.16 8.104 4.16z" fill="#fff"/></svg>
